X:1
T:Si i'ay esté vostre amy
T:Clément Janequin
T:Source : Livre premier contenant 29 chansons nouvelles à 4 parties---Paris---P.Attaignant---1535. Editor : André Vierendeels ( 24/04/18) Notes : Original clefs : C1, C3, C3, F4 Original note values have been halved Editorial accidentals above the staff  
T:Si i'ay esté vostre amy
T:©
T:©
T:©
C:Clément Janequin
Z:©
%%score [ 1 [ 2 3 ] 4 ]
L:1/8
Q:1/4=120
M:2/2
K:F
V:1 treble nm="Soprano" snm="S"
V:2 treble-8 nm="Tenor 1" snm="T 1"
V:3 treble-8 nm="Tenor 2" snm="T 2"
V:4 bass nm="Bass" snm="B"
V:1
 z8 | A4 A2 A2 | FGAB c2 A2 | d3 d c2 c2 | B4 A4 | z2 d2 d2 d2 | cBAG A4 | z2 c2 c2 c2 | B2 A2 G4 | %9
w: |Si i'ay es-|té _ _ _ _ vo-|stre'a- my à l'es-|preu- ve,|suis ie chan-|gé _ _ _ _|pour quel- que|temps per- du,|
 z2 c2 c2 c2 | A3 A A2 G2 | F2 F2 E4 | z4 c4 | A2 A2 FGAB | c2 A2 d2 d2 | A2 c2 B3 A/G/ | %16
w: nen- ny, ma-|da- me'ac- qui- tez|vo- stre deu,|le|cueur est tel _ _ _|_ que la fa-|ce l'es- preu- * *|
 FG A3 G G2- | G2 F4 E2 | F4 z2 c2 | A2 A2 FGAB | c2 A2 d2 d2 | A2 c2 B3 A/G/ | FG A3 G G2- | %23
w: ||ve le|cueur est tel _ _ _|_ que la fa-|ce l'es- preu- * *||
 GF F4 E2 | F8- | F8 |] %26
w: |ve.|_|
V:2
 z4 c4 | c2 c2 A4- | A2 f2 e3 f | g2 f2 f4 | d2 B2 f2 f2 | e2 f2 f2 f2 | edcB A4 | z2 f2 e2 e2 | %8
w: Si|i'ay es- té|_ vo- stre'a- my|à l'es- preu-|* ve, suis ie|chan- gé pour quel-|que _ _ _ temps,|pour quel- que|
 d2 f3 e e2 | f2 c2 f2 e2 | d2 d2 c3 B | A2 A2 A4 | c4 A2 A2 | F2 z c B2 A2 | FG AB G2 F2 | %15
w: temps per- * *|du, nen- ny, ma-|da- me'ac- qui- tez|vo- stre deu,|le cueur est|tel, que la fa-|ce _ l'es- * preu- ve,|
 f4 d2 d2 | A2 c2 d2 c2 | A2 B2 G4 | F2 c2 A2 A2 | F2 z c B2 A2 | FG AB G2 F2 | f4 d2 d2 | %22
w: le cueur est|tel, que la fa-|ce l'es- preu-|ve, le cueur est|tel, que la fa-|ce _ l'es- * preu- ve,|le cueur est|
 A2 c2 d2 c2 | A2 d2 c3 B | AG A2 d4 | c8 |] %26
w: tel que la fa-|ce l'es- preu- *||ve.|
V:3
 A4 A2 A2 | FGAB c2 A2 | d3 d c2 c2 | B4 A4 | z2 d2 d2 d2 | cBAG A4 | z2 c2 c2 c2 | B2 A2 G4 | %8
w: Si i'ay es-|té _ _ _ _ vo-|stre'a- my à l'es-|preu- ve,|suis ie chan-|gé, _ _ _ _|pour quel- que|temps per- du,|
 z2 c2 c2 c2 | A3 A A2 G2 | F2 F2 E4 | z4 c4 | A2 A2 FGAB | c2 A2 d2 d2 | A2 c2 B3 A/G/ | %15
w: nen- ny ma-|da- me'ac- qui- tez|vo- stre deu,|le|cueur est tel _ _ _|_ que la fa-|ce l'es- preu- * *|
 FG A3 G G2- | G2 F4 E2 | F4 z2 c2 | A2 A2 FGAB | c2 A2 d2 d2 | A2 c2 B3 A/G/ | FG A3 G G2- | %22
w: ||ve, le|cueur est tel _ _ _|_ que la fa-|ce l'es- preu- * *||
 G2 F4 E2 | F3 B A2 G2- | GF F2 B4 | A8 |] %26
w: * ve, que|la fa- ce l'es-|* * preu- *|ve.|
V:4
 z8 | z4 z2 D,2 | D,2 D,2 A,,2 A,2 | G,2 D,2 F,2 F,2 | G,4 D,E,F,G, | A,2 D,2 D,2 D,2 | %6
w: |Si|i'ay es- té vo-|stre'a- my à l'es-|preu- * * * *|ve, suis ie chan-|
 A,,2 F,2 F,2 A,2 | G,2 F,2 C,D,E,F, | G,2 F,2 C,2 C,2 | F,2 F,2 F,2 C,2 | D,2 D,2 A,,2 C,2 | %11
w: gé pour quel- que|temps per- du, _ _ _|_ nen- ny, ma-|da- me'ac- qui- tez|vo- stre deu, le|
 D,2 D,2 A,,4- | A,,4 z4 | z4 z2 F,2 | F,2 F,2 B,,A,,B,,C, | D,2 F,,2 B,,3 C, | D,2 A,,2 B,,2 C,2 | %17
w: cueur est tel,|_|le|cueur est tel, _ _ _|_ que la fa-|ce l'es- preu- *|
 D,2 B,,2 C,4 | F,,8 | z4 z2 F,2 | F,2 F,2 B,,A,,B,,C, | D,2 F,,2 B,,3 C, | D,2 A,,2 B,,2 C,2 | %23
w: |ve,|le|cueur est tel _ _ _|_ le cueur est|tel, le cueur est|
 D,2 B,,2 C,2 C,2 | D,2 D,2 B,,4 | F,,8 |] %26
w: tel que la fa-|ce l'es- preu-|ve.|

